!!!!SEGMENT: pl-gd--ms-4006--003-001_marenzio-luca--missa-super-ego-sum-panis-vivus-kyrie-eleison.krn
!!!cenid: 16xx:1744
!!!COM: Marenzio, Luca
!!!COM-rismID: pe30003955
!!!CDT: ~1553-1599/08/22
!!!CNT: Italian
!!!OPR: Missa super Ego sum panis vivus
!!!OTL: Kyrie eleison
!!!OMV: 001
!!!PDT:
!!!AGN: Sacred; Mass section
!!!YEC: Copyright 2022 Narodowy Instytut Fryderyka Chopina (https://polishscores.org)
!!!YEM: License CC-BY-4.0 (https://creativecommons.org/licenses/by/4.0)
!!!SMS-siglum: PL-GD
!!!SMS-shelfmark: Ms 4006
!!!SMS-variant:
!!!SMS-altvar:
!!!SMS-shelfwork: 003-001 M
!!!NIFC-rismSourceID: 305000459
!!!NIFC-rismChildID: 305000517
!!!NIFC-islandoraID: pl-gd:71737
!!!URL-pdf-islandora: https://repozytorium.nifc.pl/islandora/object/pl-gd%3A71737/datastream/PDF/view#page=87
!!!URL-scan: https://polish.musicsources.pl/pl/lokalizacje/galeria/rekopisy/5105 @EN{Scan on Polish Music Sources Website} @PL{Skany w portalu Dziedzictwo Muzyki Polskiej w otwartym dostępie}
!!!IIIF: https://repozytorium.nifc.pl/islandora/object/pl-gd%3A71737/datastream/IIIF/view#page=87
!!!ONB-nifc: UWAGA: msza z nr 54. 6 ksiąg głosowych. Dla V6 i V7 -puste pięciolinie. Części 1. Kyrie eleison, 2. Gloria/Et in terra pax. Skany: Bassus: 84v-85r (skan 0087), Tenor: 87v-88r (skan 0238), Quintavox: 88r (skan 0390), Octavavox: 82v-83r (skan 0534), Altus (4006-5): 86r-v (skan 0681-0682), Discantus: 88v-89r (skan 0835)
!!!AIN: 1 alto 1 bass 1 soprn 1 tenor 4 vox
!!!key: g
**kern	**text	**kern	**kern	**kern	**text	**kern	**text	**kern	**text	**kern	**text	**kern	**text
*part8	*	*part7	*part6	*part5	*	*part4	*	*part3	*	*part2	*	*part1	*
*staff8	*	*staff7	*staff6	*staff5	*	*staff4	*	*staff3	*	*staff2	*	*staff1	*
*I"OCTAVAVOX	*	*I"[Voce]	*I"[Voce]	*I"QVINTAVOX	*	*I"BASSVS.	*	*I"TENOR	*	*I"ALTVS	*	*I"DISCANTVS	*
*I'V 8	*	*I'V 7	*I'V 6	*I'V 5	*	*I'B	*	*I'T	*	*I'A	*	*I'S	*
*ICvox	*	*ICvox	*ICvox	*ICvox	*	*ICvox	*	*ICvox	*	*ICvox	*	*ICvox	*
*Ivox	*	*Ivox	*Ivox	*Ivox	*	*Ibass	*	*Itenor	*	*Ialto	*	*Isoprn	*
*clefF4	*	*clefG2	*clefG2	*clefC1	*	*clefF4	*	*clefC4	*	*clefC3	*	*clefC1	*
*k[b-]	*	*k[b-]	*k[b-]	*k[b-]	*	*k[b-]	*	*k[b-]	*	*k[b-]	*	*k[b-]	*
*g:	*	*g:	*g:	*g:	*	*g:	*	*g:	*	*g:	*	*g:	*
*M2/1	*	*M2/1	*M2/1	*M2/1	*	*M2/1	*	*M2/1	*	*M2/1	*	*M2/1	*
*met(C|)	*	*met(C|)	*met(C|)	*met(C|)	*	*met(C|)	*	*met(C|)	*	*met(C|)	*	*met(C|)	*
=1-	=1-	=1-	=1-	=1-	=1-	=1-	=1-	=1-	=1-	=1-	=1-	=1-	=1-
*xywh-#534:631,1898,4556,988	*	*	*	*xywh-#390:5217,382,4454,1012	*	*xywh-#87:787,2391,4414,972	*	*xywh-#238:601,1174,4514,1070	*	*xywh-#681:5383,1358,4342,1034	*	*xywh-#835:930,310,4456,1069	*
*	*color:red	*	*	*	*color:red	*	*	*	*	*	*color:red	*	*color:red
!	!	!	!	!LO:TX:a:i:t=Miſsa Sup Ego Sum panis vivus. â 8. Vo. Cantus T.L.M.:color=red	!	!	!	!	!	!	!	!LO:TX:a:i:t=Miſsa Super Ego Sum panis vivus. a b 8. Voc&colon; Cantus T.L.M.:color=red	!
00r	.	0ryy	0ryy	00r	.	00r	.	00r	.	1r	.	1.g	Kÿ-
.	.	.	.	.	.	.	.	.	.	1.g	Kÿ-	.	.
.	.	.	.	.	.	.	.	.	.	.	.	2g/	-ri-
=2-	=2-	=2-	=2-	=2-	=2-	=2-	=2-	=2-	=2-	=2-	=2-	=2-	=2-
.	.	0ryy	0ryy	.	.	.	.	.	.	.	.	1b-	-e
.	.	.	.	.	.	.	.	.	.	2g\	-ri-	.	.
.	.	.	.	.	.	.	.	.	.	2f\	-e	1cc	e-
.	.	.	.	.	.	.	.	.	.	2e\	e-	.	.
=3-	=3-	=3-	=3-	=3-	=3-	=3-	=3-	=3-	=3-	=3-	=3-	=3-	=3-
00r	.	0ryy	0ryy	00r	.	00r	.	00r	.	4d\	-lei-	2.dd\	-lei-
.	.	.	.	.	.	.	.	.	.	4c/	.	.	.
.	.	.	.	.	.	.	.	.	.	4B-/	.	.	.
.	.	.	.	.	.	.	.	.	.	4A/	.	4cc\	-son
.	.	.	.	.	.	.	.	.	.	4G/	.	4b-\	.
.	.	.	.	.	.	.	.	.	.	4A/	.	4a\	.
.	.	.	.	.	.	.	.	.	.	4B-/	.	2g/	.
.	.	.	.	.	.	.	.	.	.	4c/	.	.	.
=4-	=4-	=4-	=4-	=4-	=4-	=4-	=4-	=4-	=4-	=4-	=4-	=4-	=4-
.	.	0ryy	0ryy	.	.	.	.	.	.	4d\	.	2f/	.
.	.	.	.	.	.	.	.	.	.	4e\	.	.	.
*	*	*	*	*	*	*	*	*	*	*	*	*	*color:auto
.	.	.	.	.	.	.	.	.	.	4f\	.	2dd\	e-
.	.	.	.	.	.	.	.	.	.	4d\	.	.	.
.	.	.	.	.	.	.	.	.	.	4e\	.	2.cc\	-lei-
.	.	.	.	.	.	.	.	.	.	4f\	.	.	.
.	.	.	.	.	.	.	.	.	.	1g\	.	.	.
.	.	.	.	.	.	.	.	.	.	.	.	4b-\	.
=5-	=5-	=5-	=5-	=5-	=5-	=5-	=5-	=5-	=5-	=5-	=5-	=5-	=5-
*	*	*	*	*	*	*	*	*	*	*	*	*col	*
*	*	*	*	*	*	*	*color:red	*	*	*	*	*lig	*
00r	.	0ryy	0ryy	00r	.	1r	.	00r	.	.	.	1a	.
.	.	.	.	.	.	.	.	.	.	2f#X\	-son	.	.
.	.	.	.	.	.	1.G	Kÿ-	.	.	2g\	.	2.b-\	.
.	.	.	.	.	.	.	.	.	.	2d\	.	.	.
*	*	*	*	*	*	*	*	*	*	*	*	*Xcol	*
*	*	*	*	*	*	*	*	*	*	*	*color:auto	*Xlig	*
.	.	.	.	.	.	.	.	.	.	.	.	4a\	.
=6-	=6-	=6-	=6-	=6-	=6-	=6-	=6-	=6-	=6-	=6-	=6-	=6-	=6-
.	.	0ryy	0ryy	.	.	.	.	.	.	2.d\	e-	4g\	.
.	.	.	.	.	.	.	.	.	.	.	.	4a\	.
.	.	.	.	.	.	2G\	-ri-	.	.	.	.	4b-\	.
.	.	.	.	.	.	.	.	.	.	4e\	-lei-	4g/	.
.	.	.	.	.	.	2F\	-e	.	.	4fny\	.	4a\	.
.	.	.	.	.	.	.	.	.	.	4e\	.	4g/	.
.	.	.	.	.	.	2E\	e-	.	.	4d\	.	1g\	.
.	.	.	.	.	.	.	.	.	.	4c/	.	.	.
=7-	=7-	=7-	=7-	=7-	=7-	=7-	=7-	=7-	=7-	=7-	=7-	=7-	=7-
1r	.	0ryy	0ryy	1r	.	1D	-lei-	0r	.	1d	.	.	.
.	.	.	.	.	.	.	.	.	.	.	.	2f#X/	-son
2r	.	.	.	2r	.	1GG	-son	.	.	1d	-son	1g	.
1GG/	Kÿ-	.	.	1g\	Kÿ-	.	.	.	.	.	.	.	.
*	*	*	*	*	*	*	*	*	*	*	*	*custos:b-	*
!	!	!	!	!	!	!	!	!	!	!	!	!LO:LB:g=original	!
=8-	=8-	=8-	=8-	=8-	=8-	=8-	=8-	=8-	=8-	=8-	=8-	=8-	=8-
*	*	*	*	*	*	*	*	*	*	*	*	*xywh-#835:1303,1163,4068,979	*
!	!	!	!	!	!	!LO:TX:t=P:problem:brakująca pauza	!	!	!	!	!	!LO:TX:t=P:problem:brakująca pauza	!
*	*	*	*	*	*	*	*	*	*color:red	*	*	*	*
.	.	0ryy	0ryy	.	.	1ryy	.	1.B-	Kÿ-	0r	.	1ryy	.
2GG/	-ri-	.	.	2g/	-ri-	.	.	.	.	.	.	.	.
1BB-	-e	.	.	1.f	-e	1r	.	.	.	.	.	1r	.
.	.	.	.	.	.	.	.	2B-\	-ri-	.	.	.	.
*	*	*	*	*	*	*	*	*	*	*custos:g	*	*	*
!	!	!	!	!	!	!	!	!	!	!LO:LB:g=original	!	!	!
=9-	=9-	=9-	=9-	=9-	=9-	=9-	=9-	=9-	=9-	=9-	=9-	=9-	=9-
*	*	*	*	*	*	*	*	*	*	*xywh-#681:5352,1997,3941,845	*	*	*
1C	e-	0ryy	0ryy	.	.	0r	.	2A/	-e	0r	.	0r	.
.	.	.	.	2e/	e-	.	.	1G	e-	.	.	.	.
1D	-lei-	.	.	1d	-lei-	.	.	.	.	.	.	.	.
!	!	!	!	!	!	!	!	!LO:TX:b:t=P:problem:# below	!	!	!	!	!
.	.	.	.	.	.	.	.	2F#X/	-lei-	.	.	.	.
=10-	=10-	=10-	=10-	=10-	=10-	=10-	=10-	=10-	=10-	=10-	=10-	=10-	=10-
1GG	-son,	0ryy	0ryy	1d	-son,	2r	.	1G	-son	2r	.	2r	.
*	*ij	*	*	*	*ij	*	*ij	*	*ij	*	*	*	*
.	.	.	.	.	.	1G	Kÿ-	.	.	1g	Kÿ-	1b-	Kÿ-
1r	.	.	.	1r	.	.	.	1r	.	.	.	.	.
.	.	.	.	.	.	2B-\	-ri-	.	.	2f\	-ri-	2b-\	-ri-
=11-	=11-	=11-	=11-	=11-	=11-	=11-	=11-	=11-	=11-	=11-	=11-	=11-	=11-
0r	.	0ryy	0ryy	0r	.	2F\	-e	0r	.	2f\	-e	2a\	-e
.	.	.	.	.	.	2G\	e-	.	.	2d\	e-	1g	e-
.	.	.	.	.	.	1D	-lei-	.	.	1d	-lei-	.	.
.	.	.	.	.	.	.	.	.	.	.	.	2f#X/	-lei-
=12-	=12-	=12-	=12-	=12-	=12-	=12-	=12-	=12-	=12-	=12-	=12-	=12-	=12-
2r	.	0ryy	0ryy	2r	.	1GG	-son	2r	.	1d	-son	1g	-son
1G	Kÿ-	.	.	1dd	Kÿ-	.	.	1B-	Kÿ-	.	.	.	.
.	.	.	.	.	.	1r	.	.	.	1r	.	1r	.
2B-\	-ri-	.	.	2dd\	-ri-	.	.	2d\	-ri-	.	.	.	.
=13-	=13-	=13-	=13-	=13-	=13-	=13-	=13-	=13-	=13-	=13-	=13-	=13-	=13-
2F\	-e	0ryy	0ryy	2cc\	-e	0r	.	2f\	-e	0r	.	0r	.
2G\	e-	.	.	2b-\	e-	.	.	1d	e-	.	.	.	.
1A	-lei-	.	.	1a	-lei-	.	.	.	.	.	.	.	.
!	!	!	!	!	!	!	!	!LO:TX:b:t=P:problem:# below	!	!	!	!	!
.	.	.	.	.	.	.	.	2c#X\	-lei-	.	.	.	.
=14-	=14-	=14-	=14-	=14-	=14-	=14-	=14-	=14-	=14-	=14-	=14-	=14-	=14-
*	*	*	*	*	*	*	*	*	*	*	*	*	*ij
0D	-son	0ryy	0ryy	0a	-son	2r	.	0d	-son	2r	.	2.d/	Kÿ-
*	*	*	*	*	*Xij	*	*	*	*	*	*ij	*	*
.	.	.	.	.	.	1D	Kÿ-	.	.	1f	Kÿ-	.	.
.	.	.	.	.	.	.	.	.	.	.	.	4d/	-ri-
.	.	.	.	.	.	.	.	.	.	.	.	1fny	-e
.	.	.	.	.	.	2D/	-ri-	.	.	2f\	-ri-	.	.
=15-	=15-	=15-	=15-	=15-	=15-	=15-	=15-	=15-	=15-	=15-	=15-	=15-	=15-
0r	.	0ryy	0ryy	0r	.	2C/	-e	0r	.	2e\	-e	1g	e-
.	.	.	.	.	.	2BB-/	e-	.	.	2d\	e-	.	.
.	.	.	.	.	.	1AA	-lei-	.	.	1c	-lei-	1a	-lei-
=16-	=16-	=16-	=16-	=16-	=16-	=16-	=16-	=16-	=16-	=16-	=16-	=16-	=16-
!	!	!	!	!	!	!	!	!	!	!LO:TX:b:t=P:problem:# below	!	!	!
!	!	!	!	!	!	!	!	!	!	!LO:N:acc=#	!	!	!
2r	.	0ryy	0ryy	2r	.	1GG	-son	2r	.	2Bn/	-son	2d/	-son
1GG	Kÿ-	.	.	1g	.	.	.	1G	.	1d	Kÿ-	1dd	Kÿ-
.	.	.	.	.	.	2.G\	Kÿ-	.	.	.	.	.	.
2GG/	-ri-	.	.	2g/	.	.	.	2G/	.	2d\	-ri-	2dd\	-ri-
.	.	.	.	.	.	4G\	-ri-	.	.	.	.	.	.
=17-	=17-	=17-	=17-	=17-	=17-	=17-	=17-	=17-	=17-	=17-	=17-	=17-	=17-
1C	-e	0ryy	0ryy	1g	.	1C	-e	1G	.	1e-X	-e	1cc	-e
1GG	e-	.	.	2g/	.	1G	e-	2G/	.	1d	e-	1b-	e-
!	!	!	!	!LO:TX:b:t=P:problem:# below	!	!	!	!	!	!	!	!	!
.	.	.	.	1g#X\	.	.	.	2.D/	.	.	.	.	.
=18-	=18-	=18-	=18-	=18-	=18-	=18-	=18-	=18-	=18-	=18-	=18-	=18-	=18-
0D	-lei-	0ryy	0ryy	.	.	0D	-lei-	.	.	0d	-lei-	0a	-lei-
.	.	.	.	.	.	.	.	4E/	.	.	.	.	.
!	!	!	!	!	!	!	!	!LO:TX:b:t=P:problem:# below	!	!	!	!	!
.	.	.	.	4f#yX/	.	.	.	4F#X/	.	.	.	.	.
.	.	.	.	4e/	.	.	.	4G/	.	.	.	.	.
*	*	*	*	*	*	*	*	*custos:A	*	*	*	*	*
!	!	!	!	!	!	!	!	!LO:LB:g=original	!	!	!	!	!
*	*	*	*	*	*	*	*	*xywh-#238:997,2006,4117,820	*	*	*	*	*
.	.	.	.	1f#	.	.	.	2A/	.	.	.	.	.
.	.	.	.	.	.	.	.	2D/	.	.	.	.	.
=19-	=19-	=19-	=19-	=19-	=19-	=19-	=19-	=19-	=19-	=19-	=19-	=19-	=19-
!	!	!	!	!LO:TX:b:t=P:problem:# below	!	!	!	!	!	!	!	!LO:N:acc=#	!
0GG;;	-son	0ryy	0ryy	0g#X;;	.	0G;;	-son	0D;;	.	0d;;	-son	0bn;;	-son
*	*color:auto	*	*	*	*	*	*Xij	*	*color:auto	*	*	*	*
*	*Xij	*	*	*	*color:auto	*	*color:auto	*	*Xij	*	*Xij	*	*Xij
!LO:LB:g=original	!	!	!	!LO:LB:g=original	!	!LO:PB:g=original	!	!	!	!LO:LB:g=original	!	!	!
=20-	=20-	=20-	=20-	=20-	=20-	=20-	=20-	=20-	=20-	=20-	=20-	=20-	=20-
*xywh-#534:943,2642,4244,929	*	*	*	*xywh-#390:5211,1252,4429,813	*	*xywh-#87:5188,535,4169,809	*	*	*	*xywh-#681:5333,2711,4248,902	*	*xywh-#835:1348,2008,4030,964	*
*clefF4	*	*	*	*clefC1	*	*clefF4	*	*clefC4	*	*clefC3	*	*clefC1	*
*k[b-]	*	*	*	*k[b-]	*	*k[b-]	*	*k[b-]	*	*k[b-]	*	*k[b-]	*
*M2/1	*	*	*	*M2/1	*	*M2/1	*	*M2/1	*	*M2/1	*	*M2/1	*
*met(C|)	*	*	*	*met(C|)	*	*met(C|)	*	*met(C|)	*	*met(C|)	*	*met(C|)	*
00r	.	0ryy	0ryy	00r	.	1r	.	00r	.	1r	.	1r	.
.	.	.	.	.	.	1.G	Chri-	.	.	1d	Chri-	1.b-	Chri-
=21-	=21-	=21-	=21-	=21-	=21-	=21-	=21-	=21-	=21-	=21-	=21-	=21-	=21-
.	.	0ryy	0ryy	.	.	.	.	.	.	1d	-ſte	.	.
.	.	.	.	.	.	2F\	-ſte	.	.	.	.	2a\	-ſte
.	.	.	.	.	.	2E-X\	e-	.	.	2G/	e-	2g/	e-
.	.	.	.	.	.	2D/	-le-	.	.	1B-/	-le-	2f/	-le-
=22-	=22-	=22-	=22-	=22-	=22-	=22-	=22-	=22-	=22-	=22-	=22-	=22-	=22-
1r	.	0ryy	0ryy	1r	.	1C	-i-	1r	.	.	.	1e-X	-i-
.	.	.	.	.	.	.	.	.	.	2A/	-i-	.	.
2r	.	.	.	2r	.	1BB-	-son	2r	.	1B-	-son	1d	-son
1B-\	Chri-	.	.	1dd\	Chri-	.	.	1d\	Chri-	.	.	.	.
=23-	=23-	=23-	=23-	=23-	=23-	=23-	=23-	=23-	=23-	=23-	=23-	=23-	=23-
.	.	0ryy	0ryy	.	.	0r	.	.	.	1r	.	1r	.
2A\	-ſte	.	.	2cc\	-ſte	.	.	2f\	-ſte	.	.	.	.
2G\	e-	.	.	2b-\	e-	.	.	1.B-	e-	0r	.	0r	.
2F\	-le-	.	.	2a\	-le-	.	.	.	.	.	.	.	.
=24-	=24-	=24-	=24-	=24-	=24-	=24-	=24-	=24-	=24-	=24-	=24-	=24-	=24-
1E-X	-i	0ryy	0ryy	1g	-i	1r	.	.	.	.	.	.	.
.	.	.	.	.	.	.	.	2G/	-lei-	.	.	.	.
1D	-son	.	.	1f	-son	2r	.	1A	-son	2r	.	2r	.
*	*ij	*	*	*	*ij	*	*ij	*	*ij	*	*ij	*	*ij
.	.	.	.	.	.	1D\	Chri-	.	.	1f\	Chri-	1d/	Chri-
=25-	=25-	=25-	=25-	=25-	=25-	=25-	=25-	=25-	=25-	=25-	=25-	=25-	=25-
0r	.	0ryy	0ryy	0r	.	.	.	0r	.	.	.	.	.
.	.	.	.	.	.	2C/	-ſte	.	.	2e\	-ſte	2e/ny	-ſte
.	.	.	.	.	.	2BB-/	e-	.	.	2d\	e-	1f	e-
.	.	.	.	.	.	2AA/	-le-	.	.	2c/	.	.	.
=26-	=26-	=26-	=26-	=26-	=26-	=26-	=26-	=26-	=26-	=26-	=26-	=26-	=26-
1r	.	0ryy	0ryy	1r	.	1GG	-i-	1r	.	1B-	-lei-	1g	-lei-
2r	.	.	.	2r	.	1FF	-son	2r	.	1A	-son	1c	-son
1F\	Chri-	.	.	1a\	Chri-	.	.	1A\	Chri-	.	.	.	.
=27-	=27-	=27-	=27-	=27-	=27-	=27-	=27-	=27-	=27-	=27-	=27-	=27-	=27-
.	.	0ryy	0ryy	.	.	1r	.	.	.	1r	.	1r	.
2Eny\	-ſte	.	.	2g/	-ſte	.	.	2c\	-ſte	.	.	.	.
2D/	e-	.	.	2f/	e-	0r	.	1.A	e-	0r	.	0r	.
2C/	-le-	.	.	2e/	-le-	.	.	.	.	.	.	.	.
=28-	=28-	=28-	=28-	=28-	=28-	=28-	=28-	=28-	=28-	=28-	=28-	=28-	=28-
1BB-	-i	0ryy	0ryy	1d	-i-	.	.	.	.	.	.	.	.
.	.	.	.	.	.	.	.	2D/	-lei-	.	.	.	.
1AA	-son	.	.	1c	-son	2r	.	1E	-son	2r	.	2r	.
.	.	.	.	.	.	1B-\	Chri-	.	.	2e\	Chri-	1cc\	Chri-
=29-	=29-	=29-	=29-	=29-	=29-	=29-	=29-	=29-	=29-	=29-	=29-	=29-	=29-
0r	.	0ryy	0ryy	1r	.	.	.	0r	.	2f\	-ſte	.	.
.	.	.	.	.	.	2G\	-ſte	.	.	2g\	e-	2b-\	-ſte
*	*Xij	*	*	*	*Xij	*	*	*	*Xij	*lig	*	*	*
.	.	.	.	0r	.	2F\	e-	.	.	1c	-lei-	2a\	e-
.	.	.	.	.	.	2Eny\	-le-	.	.	.	.	2g/	-le-
=30-	=30-	=30-	=30-	=30-	=30-	=30-	=30-	=30-	=30-	=30-	=30-	=30-	=30-
1r	.	0ryy	0ryy	.	.	1D	-i-	1r	.	1d	.	1f	-i-
*	*	*	*	*	*	*	*	*	*	*Xlig	*	*	*
2r	.	.	.	2r	.	1C	-son	2r	.	1G	-son	1e	-son
1C/	Chri-	.	.	1g\	Chri-	.	.	1c\	Chri-	.	.	.	.
*	*	*	*	*	*	*	*Xij	*	*	*	*Xij	*custos:b-	*Xij
!	!	!	!	!	!	!	!	!	!	!	!	!LO:LB:g=original	!
=31-	=31-	=31-	=31-	=31-	=31-	=31-	=31-	=31-	=31-	=31-	=31-	=31-	=31-
*	*	*	*	*	*	*	*	*	*	*	*	*xywh-#835:1326,2733,4053,919	*
.	.	0ryy	0ryy	.	.	0r	.	.	.	1r	.	1r	.
2BB-/	-ſte	.	.	2g/	-ſte	.	.	2G/	-ſte	.	.	.	.
*	*	*	*	*	*	*	*	*custos:A	*	*	*	*	*
!	!	!	!	!	!	!	!	!LO:LB:g=original	!	!	!	!	!
*	*	*	*	*	*	*	*	*xywh-#238:1014,2701,4106,847	*	*	*	*	*
2AA/	e-	.	.	2cc\	e-	.	.	4A/	e-	0r	.	0r	.
.	.	.	.	.	.	.	.	4E/	-le-	.	.	.	.
2GG/	-le-	.	.	2b-\	-le-	.	.	1G/	-i-	.	.	.	.
=32-	=32-	=32-	=32-	=32-	=32-	=32-	=32-	=32-	=32-	=32-	=32-	=32-	=32-
1D	-i-	0ryy	0ryy	1a	-i-	1r	.	.	.	.	.	.	.
!	!	!	!	!	!	!	!	!LO:TX:b:t=P:problem:# below	!	!	!	!	!
.	.	.	.	.	.	.	.	2F#X/	.	.	.	.	.
1GG	-son	.	.	1b-	-son	2r	.	1G	-son,	2r	.	2r	.
.	.	.	.	.	.	1G\	Chri-	.	.	1d\	Chri-	1b-\	Chri-
=33-	=33-	=33-	=33-	=33-	=33-	=33-	=33-	=33-	=33-	=33-	=33-	=33-	=33-
1r	.	0ryy	0ryy	0r	.	.	.	0r	.	.	.	.	.
.	.	.	.	.	.	2F\	.	.	.	2d\	-ſte	2dd\	-ſte
*	*	*	*	*	*ij	*	*	*	*	*custos:g	*	*	*
!	!	!	!	!	!	!	!	!	!	!LO:PB:g=original	!	!	!
*	*	*	*	*	*	*	*	*	*	*xywh-#682:1360,605,3947,827	*	*	*
0r	.	.	.	.	.	2E\	.	.	.	2g\	e-	2cc#X\	e-
.	.	.	.	.	.	2D/	-ſte	.	.	2f\	-le-	2dd\	-le-
=34-	=34-	=34-	=34-	=34-	=34-	=34-	=34-	=34-	=34-	=34-	=34-	=34-	=34-
.	.	0ryy	0ryy	1r	.	1A	e-	1r	.	1e	-ÿ-	1a	-i-
*	*	*	*	*custos:a	*	*	*	*	*	*	*	*	*
!	!	!	!	!LO:LB:g=original	!	!	!	!	!	!	!	!	!
*	*	*	*	*xywh-#390:5199,1917,4224,944	*	*	*	*	*	*	*	*	*
2r	.	.	.	2.a\	Chri-	0D	-le-	2r	.	1f	-Son,	0a	-son
*	*ij	*	*	*	*	*	*	*	*ij	*	*	*	*ij
1D\	Chri-	.	.	.	.	.	.	1A\	Chri-	.	.	.	.
.	.	.	.	4g/	-ſte	.	.	.	.	.	.	.	.
=35-	=35-	=35-	=35-	=35-	=35-	=35-	=35-	=35-	=35-	=35-	=35-	=35-	=35-
.	.	0ryy	0ryy	2f/	e-	.	.	.	.	1.d	Chri-	.	.
2C/	-ſte	.	.	2e/	-lei-	.	.	2A/	-ſte	.	.	.	.
2BB-/	e-	.	.	1d	-son	1D	-i-	1.B-	e-	.	.	1.dd	Chri-
2AA/	-le-	.	.	.	.	.	.	.	.	2c/	-ſte	.	.
=36-	=36-	=36-	=36-	=36-	=36-	=36-	=36-	=36-	=36-	=36-	=36-	=36-	=36-
!LO:TX:b:t=t.	!	!	!	!	!	!LO:TX:a:t=t	!	!	!	!	!	!	!
00GG	-i-	0ryy	0ryy	1.dd	Chri-	00G	.	.	.	2B-/	e-	.	.
.	.	.	.	.	.	.	.	2c\	-le-	2A/	.	2ccny\	-ſte
.	.	.	.	.	.	.	.	1d	-i-	2G/	.	2b-\	e-
.	.	.	.	2cc\	-ſte	.	.	.	.	2A/	.	2a\	-le-
=37-	=37-	=37-	=37-	=37-	=37-	=37-	=37-	=37-	=37-	=37-	=37-	=37-	=37-
.	.	0ryy	0ryy	2b-\	e-	.	.	0D	.	2B-/	.	2g/	.
.	.	.	.	2a\	-le-	.	.	.	.	2c/	.	2a\	.
.	.	.	.	1g	-i-	.	.	.	.	1d	-leÿ-	1b-	-i-
=38-	=38-	=38-	=38-	=38-	=38-	=38-	=38-	=38-	=38-	=38-	=38-	=38-	=38-
0D;;	-son	0ryy	0ryy	0f#X;;	-son	0D;;	.	0D;;	-son,	0d;;	-Son.	0a;;	-son
!LO:PB:g=original	!	!	!	!	!	!LO:LB:g=original	!	!LO:PB:g=original	!	!	!	!LO:PB:g=original	!
*xywh-#534:5225,613,4318,899	*	*	*	*	*	*xywh-#87:5147,1208,4255,809	*	*xywh-#238:5153,599,4378,836	*	*	*	*xywh-#835:5326,422,4135,889	*
*	*Xij	*	*	*	*Xij	*	*	*	*Xij	*	*	*	*Xij
=39-	=39-	=39-	=39-	=39-	=39-	=39-	=39-	=39-	=39-	=39-	=39-	=39-	=39-
*clefF4	*	*	*	*clefC1	*	*clefF4	*	*clefC4	*	*clefC3	*	*clefC1	*
*k[b-]	*	*	*	*k[b-]	*	*k[b-]	*	*k[b-]	*	*k[b-]	*	*k[b-]	*
*M2/1	*	*	*	*M2/1	*	*M2/1	*	*M2/1	*	*M2/1	*	*M2/1	*
*met(C|)	*	*	*	*met(C|)	*	*met(C|)	*	*met(C|)	*	*met(C|)	*	*met(C|)	*
00r	.	0ryy	0ryy	00r	.	00r	.	00r	.	1.G	Kÿ-	1.g	Kÿ-
.	.	.	.	.	.	.	.	.	.	2G/	-ri-	2g/	-ri-
=40-	=40-	=40-	=40-	=40-	=40-	=40-	=40-	=40-	=40-	=40-	=40-	=40-	=40-
.	.	0ryy	0ryy	.	.	.	.	.	.	1B-	-e	2f/	-e
.	.	.	.	.	.	.	.	.	.	.	.	2b-\	e-
.	.	.	.	.	.	.	.	.	.	1c	e-	4a\	-le-
.	.	.	.	.	.	.	.	.	.	.	.	4g/	.
.	.	.	.	.	.	.	.	.	.	.	.	1g\	.
=41-	=41-	=41-	=41-	=41-	=41-	=41-	=41-	=41-	=41-	=41-	=41-	=41-	=41-
00r	.	0ryy	0ryy	00r	.	1.D	Kÿ-	00r	.	1d	-leÿ-	.	.
.	.	.	.	.	.	.	.	.	.	.	.	4f/	.
.	.	.	.	.	.	.	.	.	.	.	.	4e/	.
.	.	.	.	.	.	.	.	.	.	2A/	-ſon	2.f/	.
*	*	*	*	*	*	*	*	*	*	*	*ij	*	*
.	.	.	.	.	.	2D/	-ri-	.	.	1a\	Kÿ-	.	.
.	.	.	.	.	.	.	.	.	.	.	.	4g/	.
=42-	=42-	=42-	=42-	=42-	=42-	=42-	=42-	=42-	=42-	=42-	=42-	=42-	=42-
.	.	0ryy	0ryy	.	.	1F	-e	.	.	.	.	4a\	.
.	.	.	.	.	.	.	.	.	.	.	.	4b-\	.
.	.	.	.	.	.	.	.	.	.	2a\	ri-	2.cc\	.
.	.	.	.	.	.	1G	e-	.	.	2g\	-e	.	.
.	.	.	.	.	.	.	.	.	.	.	.	8b-\L	.
.	.	.	.	.	.	.	.	.	.	.	.	8a\J	.
.	.	.	.	.	.	.	.	.	.	2f\	e-	2b-\	.
*	*	*	*	*	*	*	*	*	*	*custos:e	*	*	*
!	!	!	!	!	!	!	!	!	!	!LO:LB:g=original	!	!	!
=43-	=43-	=43-	=43-	=43-	=43-	=43-	=43-	=43-	=43-	=43-	=43-	=43-	=43-
*	*	*	*	*	*	*	*	*	*	*xywh-#682:1345,1335,3992,744	*	*	*
1r	.	0ryy	0ryy	1r	.	1A	-lei-	1r	.	1e	-leÿ-	1a	-i-
2r	.	.	.	2r	.	1D	-son ,	2r	.	1f	-ſon	1a	-son,
1D\	Kÿ-	.	.	1d/	Kÿ-	.	.	1F/	Kÿ-	.	.	.	.
=44-	=44-	=44-	=44-	=44-	=44-	=44-	=44-	=44-	=44-	=44-	=44-	=44-	=44-
.	.	0ryy	0ryy	.	.	00r	.	.	.	00r	.	00r	.
2D/	-ri-	.	.	2d/	-ri-	.	.	2F/	-ri-	.	.	.	.
1BB-	-e	.	.	2f/	-e	.	.	1D	-e	.	.	.	.
.	.	.	.	2g/	e-	.	.	.	.	.	.	.	.
=45-	=45-	=45-	=45-	=45-	=45-	=45-	=45-	=45-	=45-	=45-	=45-	=45-	=45-
1AA	e-	0ryy	0ryy	1a	-lei-	.	.	2E/	e-	.	.	.	.
!	!	!	!	!	!	!	!	!LO:TX:b:t=P:problem:# below	!	!	!	!	!
.	.	.	.	.	.	.	.	2F#X/	-lei-	.	.	.	.
1GG	-lei-	.	.	0.d	-son	.	.	1G	-son	.	.	.	.
=46-	=46-	=46-	=46-	=46-	=46-	=46-	=46-	=46-	=46-	=46-	=46-	=46-	=46-
0D	-son	0ryy	0ryy	.	.	2r	.	2.Fny/	.	2r	.	2r	.
*	*	*	*	*	*	*	*ij	*	*	*	*	*	*ij
.	.	.	.	.	.	1D	Kÿ-	.	.	1d	Kÿ-	1f	Kÿ-
.	.	.	.	.	.	.	.	4G/	.	.	.	.	.
.	.	.	.	.	.	.	.	1A	.	.	.	.	.
.	.	.	.	.	.	2D/	-ri-	.	.	2d\	ri-	2f/	ri-
=47-	=47-	=47-	=47-	=47-	=47-	=47-	=47-	=47-	=47-	=47-	=47-	=47-	=47-
0r	.	0ryy	0ryy	0r	.	2C/	-e	1r	.	2e\	-e	2g/	-e
.	.	.	.	.	.	2F\	e-	.	.	2f\	e-	2a\	e-
*	*	*	*	*	*	*	*	*	*	*	*	*custos:b-	*
!	!	!	!	!	!	!	!	!	!	!	!	!LO:LB:g=original	!
*	*	*	*	*	*	*	*	*	*	*	*	*xywh-#835:5326,1148,4314,1009	*
*	*	*	*	*	*	*	*	*	*	*	*	*lig	*
.	.	.	.	.	.	2E-X\	-le-	0r	.	2.g\	-leÿ-	1b-	-lei-
.	.	.	.	.	.	2D/	.	.	.	.	.	.	.
.	.	.	.	.	.	.	.	.	.	4f\	.	.	.
=48-	=48-	=48-	=48-	=48-	=48-	=48-	=48-	=48-	=48-	=48-	=48-	=48-	=48-
1r	.	0ryy	0ryy	1r	.	1C	-i-	.	.	1e-X	.	1cc	.
*	*ij	*	*	*	*ij	*	*	*	*ij	*	*	*Xlig	*
2r	.	.	.	2r	.	1BB-	-son	2r	.	1d	-ſon	1f	-son,
1BB-/	Kÿ-	.	.	1f/	Kÿ-	.	.	1F/	Kÿ-	.	.	.	.
*	*	*	*	*	*	*	*	*	*	*	*Xij	*	*Xij
=49-	=49-	=49-	=49-	=49-	=49-	=49-	=49-	=49-	=49-	=49-	=49-	=49-	=49-
.	.	0ryy	0ryy	.	.	00r	.	.	.	00r	.	00r	.
2BB-/	-ri-	.	.	2g/	-ri-	.	.	2D/	-ri-	.	.	.	.
*	*	*	*	*custos:a	*	*	*	*	*	*	*	*	*
!	!	!	!	!LO:LB:g=original	!	!	!	!	!	!	!	!	!
*	*	*	*	*xywh-#390:5273,2606,4075,944	*	*	*	*	*	*	*	*	*
2AA/	-e	.	.	2.a\	-e	.	.	2E/	-e	.	.	.	.
2D/	e-	.	.	.	.	.	.	2F/	e-	.	.	.	.
.	.	.	.	4b-\	e-	.	.	.	.	.	.	.	.
=50-	=50-	=50-	=50-	=50-	=50-	=50-	=50-	=50-	=50-	=50-	=50-	=50-	=50-
2C/	-lei-	0ryy	0ryy	2cc\	-le-	.	.	4G/	-lei-	.	.	.	.
.	.	.	.	.	.	.	.	4F/	.	.	.	.	.
2BB-/	.	.	.	2f/	.	.	.	4F/	.	.	.	.	.
.	.	.	.	.	.	.	.	8E/L	.	.	.	.	.
.	.	.	.	.	.	.	.	8D/J	.	.	.	.	.
1AA	.	.	.	1a	-i-	.	.	1E	.	.	.	.	.
=51-	=51-	=51-	=51-	=51-	=51-	=51-	=51-	=51-	=51-	=51-	=51-	=51-	=51-
0GG	-son	0ryy	0ryy	0b-	-son	2r	.	0G	-son	2r	.	2r	.
.	.	.	.	.	.	1G	Kÿ-	.	.	1g	Kÿ-	1d	Kÿ-
.	.	.	.	.	.	2G\	-ri-	.	.	2g\	-ri-	2d/	-ri-
*	*	*	*	*	*Xij	*	*	*custos:B-	*Xij	*	*	*	*
!	!	!	!	!	!	!	!	!LO:LB:g=original	!	!	!	!	!
=52-	=52-	=52-	=52-	=52-	=52-	=52-	=52-	=52-	=52-	=52-	=52-	=52-	=52-
*	*	*	*	*	*	*	*	*xywh-#238:5142,1316,4470,809	*	*	*	*	*
0r	.	0ryy	0ryy	0r	.	2F\	-e	0r	.	2c/	-e	1.f	-e
.	.	.	.	.	.	2B-\	e-	.	.	2r	.	.	.
.	.	.	.	.	.	4A\	-le-	.	.	2r	.	.	.
.	.	.	.	.	.	4G\	.	.	.	.	.	.	.
*	*	*	*	*	*	*custos:G	*	*	*	*	*	*	*
!	!	!	!	!	!	!LO:LB:g=original	!	!	!	!	!	!	!
*	*	*	*	*	*	*xywh-#87:5165,1826,4464,827	*	*	*	*	*	*	*
.	.	.	.	.	.	1G\	-i-	.	.	2d\	Kÿ-	2g/	e-
=53-	=53-	=53-	=53-	=53-	=53-	=53-	=53-	=53-	=53-	=53-	=53-	=53-	=53-
1r	.	0ryy	0ryy	1r	.	.	.	1r	.	1d	-rie	1a	-lei-
.	.	.	.	.	.	2F#X\	.	.	.	.	.	.	.
2r	.	.	.	2r	.	0G	-son	2r	.	2.B-/	e-	0d	-son
1GG/	Kÿ-	.	.	1g\	Kÿ-	.	.	1B-\	Kÿ-	.	.	.	.
.	.	.	.	.	.	.	.	.	.	4A/	-lei-	.	.
*	*	*	*	*	*	*	*Xij	*	*	*	*	*	*
=54-	=54-	=54-	=54-	=54-	=54-	=54-	=54-	=54-	=54-	=54-	=54-	=54-	=54-
.	.	0ryy	0ryy	.	.	.	.	.	.	1G	-ſon,	.	.
2GG/	-ri-	.	.	2g/	-ri-	.	.	2B-\	-ri-	.	.	.	.
1BB-	-e	.	.	2f/	-e	1r	.	2B-\	-e	1r	.	1r	.
.	.	.	.	2b-\	e-	.	.	2d\	e-	.	.	.	.
=55-	=55-	=55-	=55-	=55-	=55-	=55-	=55-	=55-	=55-	=55-	=55-	=55-	=55-
1C	e-	0ryy	0ryy	4a\	-lei-	0r	.	2.c\	-lei-	0r	.	0r	.
.	.	.	.	4g/	.	.	.	.	.	.	.	.	.
.	.	.	.	1g	.	.	.	.	.	.	.	.	.
.	.	.	.	.	.	.	.	4B-\	.	.	.	.	.
1D	-lei-	.	.	.	.	.	.	1A	.	.	.	.	.
!	!	!	!	!LO:TX:b:t=P:problem:# below	!	!	!	!	!	!	!	!	!
.	.	.	.	2f#X/	.	.	.	.	.	.	.	.	.
=56-	=56-	=56-	=56-	=56-	=56-	=56-	=56-	=56-	=56-	=56-	=56-	=56-	=56-
0GG	-son	0ryy	0ryy	0g	-son	2r	.	0G	-son	2r	.	2r	.
*	*	*	*	*	*	*	*	*	*	*	*ij	*	*ij
.	.	.	.	.	.	1GG	Kÿ-	.	.	1d	Kÿ-	1g	Kÿ-
.	.	.	.	.	.	2GG/	-ri-	.	.	2d\	-ri-	2g/	-ri-
=57-	=57-	=57-	=57-	=57-	=57-	=57-	=57-	=57-	=57-	=57-	=57-	=57-	=57-
0r	.	0ryy	0ryy	0r	.	1BB-	-e	0r	.	2d\	-e	2f/	-e
.	.	.	.	.	.	.	.	.	.	2.f\	e-	2b-\	e-
.	.	.	.	.	.	1C	e-	.	.	.	.	4a\	-le-
.	.	.	.	.	.	.	.	.	.	4eny\	-le-	4g/	.
.	.	.	.	.	.	.	.	.	.	2e\	-i-	1g\	.
=58-	=58-	=58-	=58-	=58-	=58-	=58-	=58-	=58-	=58-	=58-	=58-	=58-	=58-
2r	.	0ryy	0ryy	2r	.	0D	-lei-	2r	.	0d	-ſon	.	.
*	*	*	*	*	*ij	*	*	*	*ij	*	*Xij	*	*
1D	Kÿ-	.	.	1dd	Kÿ-	.	.	1A	Kÿ-	.	.	4f#X/	.
.	.	.	.	.	.	.	.	.	.	.	.	4e/	.
.	.	.	.	.	.	.	.	.	.	.	.	1f#	-i-
2D/	-ri-	.	.	2a\	-ri-	.	.	1d\	-ri-	.	.	.	.
=59-	=59-	=59-	=59-	=59-	=59-	=59-	=59-	=59-	=59-	=59-	=59-	=59-	=59-
!	!	!	!	!LO:TX:b:t=P:problem:# below	!	!	!	!	!	!	!	!	!
!	!	!	!	!LO:N:acc=#	!	!	!	!	!	!	!	!	!
1G	-e	0ryy	0ryy	1bn	-e	1GG	-son	.	.	1d	e-	00.g;;/	-son
.	.	.	.	.	.	.	.	2G/	-e	.	.	.	.
1GG	e-	.	.	1b	e-	1G	e-	2.G/	e-	2d\	-le-	.	.
.	.	.	.	.	.	.	.	.	.	2.g\	-i-	.	.
.	.	.	.	.	.	.	.	4F/	-lei-	.	.	.	.
=60-	=60-	=60-	=60-	=60-	=60-	=60-	=60-	=60-	=60-	=60-	=60-	=60-	=60-
0C	-lei-	0ryy	0ryy	0cc	-lei-	0C	-lei-	4E-X/	.	.	.	.	.
.	.	.	.	.	.	.	.	4D/	.	4f\	.	.	.
!	!	!	!	!	!	!	!	!	!	!LO:TX:a:t=P:problem:♭ above	!	!	!
.	.	.	.	.	.	.	.	2C/	.	4e-X\	.	.	.
.	.	.	.	.	.	.	.	.	.	4d\	.	.	.
.	.	.	.	.	.	.	.	1G	.	1c	.	.	.
=61-	=61-	=61-	=61-	=61-	=61-	=61-	=61-	=61-	=61-	=61-	=61-	=61-	=61-
!	!	!	!	!LO:N:acc=#	!	!	!	!	!	!	!	!	!
0GG;;	-son	0ryy	0ryy	0bn;;	-son	0G;;	-son	0G;;	-son	0d;;	-Son.	.	.
*	*Xij	*	*	*	*Xij	*	*	*	*Xij	*	*	*	*Xij
==	==	==	==	==	==	==	==	==	==	==	==	==	==
*-	*-	*-	*-	*-	*-	*-	*-	*-	*-	*-	*-	*-	*-
!!!system-decoration: [(s1,s2,s3,s4,s5,s6,s7,s8)]
!!!ENC: Filip Voros
!!!END: 2022-06-16
!!!ENC: Jan Barakat
!!!END: 2022-07-27
!!!ENC-iiif: Jolanta Bujas-Poniatowska
!!!END-iiif: 2022-09-16
